src/icon/brand/forex/icon_forex_s_black.svg

<svg width="18px" height="18px" viewBox="0 0 18 18" version="1.1" xmlns="http://www.w3.org/2000/svg"><g transform="translate(-182.000000, 0.000000) translate(182.000000, 0.000000)" fill="#0B1F35" stroke="none" stroke-width="1" fill-rule="evenodd"><polygon points="4.86294015 4.15384615 4.83634367 4.15384615 2.76923077 11.0769231 6.92307692 11.0769231"/><path d="M8.06015676,14.4951 L1.26150811,14.4951 C1.14961622,14.8116 4.86486486e-05,18.0001 4.86486486e-05,18.0001 L9.31918378,18.0001 C9.31918378,18.0001 8.17302162,14.8116 8.06015676,14.4951"/><path d="M15.3693243,6.79785 L12.0840811,6.79785 C12.0831081,5.57535 12.0821351,4.39735 12.0801892,3.37585 L16.3622432,3.37585 C16.5252162,3.37585 16.7027838,3.23985 16.7592162,3.07285 L17.6927838,0.31635 C17.7501892,0.14935 17.6645676,0.01385 17.5015946,0.01385 L4.66078378,0.01385 L4.66078378,0.04685 L4.6637027,0.04685 C6.43159459,0.04685 7.00662162,1.36735 7.4537027,2.64835 C7.68478378,3.31035 11.8904595,16.01685 12.0582973,16.50185 C12.0787297,16.55935 12.0850541,13.59185 12.0855405,10.15985 L14.2294865,10.15985 C14.3924595,10.15985 14.570027,10.02385 14.6274324,9.85635 L15.561,7.10035 C15.6179189,6.93335 15.5313243,6.79785 15.3693243,6.79785"/></g></svg>

<svg width="18" height="18" viewBox="0 0 18 18" xmlns="http://www.w3.org/2000/svg"><g fill="#0B1F35" fill-rule="evenodd"><path d="M4.863 4.154h-.027L2.77 11.077h4.154zM8.06 14.495H1.262C1.15 14.812 0 18 0 18h9.32l-1.26-3.505M15.37 6.798h-3.286c0-1.223-.002-2.4-.004-3.422h4.282c.163 0 .34-.136.397-.303l.934-2.757c.057-.167-.028-.302-.191-.302H4.66v.033h.003c1.768 0 2.343 1.32 2.79 2.601.23.662 4.436 13.369 4.604 13.854.02.057.027-2.91.028-6.342h2.143c.163 0 .341-.136.398-.304l.934-2.756c.057-.167-.03-.302-.192-.302"/></g></svg>
